app/images/phone.svg

<svg width="50" height="48" viewBox="0 0 50 48" fill="none" xmlns="http://www.w3.org/2000/svg">
<path d="M34.0241 41.9999C18.6742 41.9999 6.18616 29.8878 6.18616 14.9999C6.1888 12.4457 7.15011 9.97973 8.8905 8.06275C10.6309 6.14577 13.0313 4.90889 15.6433 4.58317C16.308 4.5054 16.9808 4.6384 17.561 4.96228C18.1413 5.28616 18.5979 5.78352 18.8625 6.37999L22.7466 15.1696C22.9481 15.6243 23.0303 16.1203 22.9857 16.6133C22.9412 17.1063 22.7714 17.5809 22.4915 17.9947L19.2756 22.7605L19.2752 22.7609C20.7273 25.6245 23.1221 27.937 26.081 29.3328L30.9223 26.2027C31.3501 25.9251 31.8427 25.7557 32.3552 25.7101C32.8678 25.6644 33.3839 25.7439 33.8567 25.9413L42.9113 29.705C43.5264 29.9616 44.0393 30.4044 44.3732 30.9672C44.7072 31.53 44.8444 32.1825 44.7641 32.8272C44.4283 35.3607 43.1531 37.6889 41.1766 39.3769C39.2001 41.065 36.6576 41.9974 34.0241 41.9999ZM16.0195 7.56199C14.1564 7.79654 12.4449 8.68068 11.2046 10.0494C9.96435 11.418 9.27997 13.1777 9.27926 14.9999C9.28668 21.3629 11.8961 27.4632 16.535 31.9625C21.174 36.4619 27.4636 38.9927 34.0241 38.9999C35.9048 38.9985 37.7206 38.333 39.1323 37.1279C40.5441 35.9228 41.4552 34.2604 41.6956 32.4513L32.6384 28.6989L27.7986 31.829C27.3538 32.1172 26.8394 32.2884 26.3058 32.3259C25.7723 32.3633 25.2378 32.2658 24.7548 32.0427C21.1576 30.3521 18.2473 27.5423 16.4877 24.061C16.2567 23.5954 16.1536 23.0796 16.1885 22.5639C16.2235 22.0482 16.3953 21.55 16.6872 21.1177L19.9033 16.3514L16.0195 7.56199Z" fill="#030303"/>
</svg>

<svg width="50" height="48" fill="none" xmlns="http://www.w3.org/2000/svg"><path d="M34.024 42C18.674 42 6.186 29.888 6.186 15c.003-2.554.964-5.02 2.704-6.937a10.945 10.945 0 016.753-3.48 3.18 3.18 0 011.918.38 3.04 3.04 0 011.302 1.417l3.884 8.79a2.913 2.913 0 01-.256 2.825l-3.215 4.765c1.451 2.864 3.846 5.177 6.805 6.573l4.841-3.13a3.17 3.17 0 012.934-.261l9.055 3.763a3.07 3.07 0 011.462 1.262 2.93 2.93 0 01.391 1.86 10.42 10.42 0 01-3.587 6.55A11.035 11.035 0 0134.024 42zM16.02 7.562a7.811 7.811 0 00-4.814 2.487A7.374 7.374 0 009.279 15c.008 6.364 2.617 12.464 7.256 16.963 4.639 4.5 10.929 7.03 17.49 7.038a7.88 7.88 0 005.107-1.872 7.442 7.442 0 002.564-4.677L32.638 28.7l-4.84 3.13a3.173 3.173 0 01-3.044.214c-3.596-1.69-6.507-4.5-8.266-7.982a2.922 2.922 0 01.2-2.943l3.215-4.767-3.883-8.789z" fill="#030303"/></svg>
